X:1
T: Considine's Grove
C:
R:Reel
Q: 232
K:Em
M:4/4
L:1/8
|:D|E^D EF GF GA|Bd AF DF AF|E^D EF GF GA|Bd AF BE ED|
E^D EF GF GA|Bd AF DF AF|E^D EF GF GA|Bd AF BE Ed|
ef ge fg af|ef ge fd df|ef ge fg af|gf ed Be ed|
ef ge fg af|ef ge fd df|eB BA Bc AF|GB AF BE E:|
